X: 1
T: IRISH -- HORNPIPE
B: Cole's 1000 Fiddle Tunes
R: hornpipe
M: 2/4
L: 1/16
Q:1/4=100
Z: Contributed 20000422031817 by John Chambers jc:trillian.mit.edu
K: D
((3uABc) \
| dAFA dfaf | gfef .d2.A2 | BdAd GdFd | .E2.E2.E2 ((3uABc) |
| dAFA dfaf | gfef dcBA | BcdA BGEC | D2D2D2 :|
|: vFG \
| AFdB fdAF | GABG E3uf | gfed cdef | edcB A3uA |
| ((3d/e/d/)Ad ((3f/g/f/)df | ((3a/b/a/)fd .A2.f2 | (gf)ed cABc | d2d2d2 :|
